X: 41873
T: Vixen Run
R: jig
M: 6/8
K: Dmajor
|:D2E F2E|FBA GFE|F2A B2A|FAF EDC|
D2E F2E|FBA Bcd|ABA GFE|EDC D3:|
|:D2d dcB|ABA AFD|F2A dcB|AFD EFE|
D2d dcB|ABA ABc|dcB AFD|EFE D3:|

